symbols-de/shields/motorway_8x2_z16.svg

<?xml version="1.0" encoding="UTF-8" standalone="no"?>
<svg
   xmlns:dc="http://purl.org/dc/elements/1.1/"
   xmlns:cc="http://creativecommons.org/ns#"
   xmlns:rdf="http://www.w3.org/1999/02/22-rdf-syntax-ns#"
   xmlns:svg="http://www.w3.org/2000/svg"
   xmlns="http://www.w3.org/2000/svg"
   xmlns:sodipodi="http://sodipodi.sourceforge.net/DTD/sodipodi-0.dtd"
   xmlns:inkscape="http://www.inkscape.org/namespaces/inkscape"
   width="100%"
   height="100%"
   viewBox="0 0 61.0 26.0"
   id="svg2"
   version="1.1"
   inkscape:version="0.91 r13725"
   sodipodi:docname="autobahn_8x2_z16.svg">
  <metadata
     id="metadata9">
    <rdf:RDF>
      <cc:Work
         rdf:about="">
        <dc:format>image/svg+xml</dc:format>
        <dc:type
           rdf:resource="http://purl.org/dc/dcmitype/StillImage" />
        <dc:title></dc:title>
      </cc:Work>
    </rdf:RDF>
  </metadata>
  <defs
     id="defs7" />
  <sodipodi:namedview
     pagecolor="#ffffff"
     bordercolor="#666666"
     borderopacity="1"
     objecttolerance="10"
     gridtolerance="10"
     guidetolerance="10"
     inkscape:pageopacity="0"
     inkscape:pageshadow="2"
     inkscape:window-width="974"
     inkscape:window-height="648"
     id="namedview5"
     showgrid="false"
     inkscape:zoom="5.7868852"
     inkscape:cx="30.5"
     inkscape:cy="13"
     inkscape:window-x="306"
     inkscape:window-y="301"
     inkscape:window-maximized="0"
     inkscape:current-layer="svg2" />
  <path
     style="fill:#365eaf;fill-opacity:1;stroke:#0528a2;stroke-width:1;stroke-miterlimit:4;stroke-dasharray:none;stroke-opacity:1"
     d="m 30.499999,0.500001 c -0.430105,0 -0.644531,0.0036 -0.644531,0.01274 L 1.4690514,2.436144 C 0.8238875,2.528374 0.5,2.667788 0.5,2.852244 c 0,6.765172 0,13.530343 0,20.295514 0,0.184456 0.3238875,0.323875 0.9690514,0.4161 L 29.855468,25.48726 c 0,0.0092 0.214431,0.01274 0.644531,0.01274 0.430108,0 0.644532,-0.0036 0.644532,-0.01274 l 28.386416,-1.923405 c 0.645164,-0.09223 0.969051,-0.231644 0.969051,-0.4161 0,-6.765171 0,-13.530341 0,-20.295513 0,-0.184456 -0.323887,-0.323875 -0.969051,-0.4161 L 31.144531,0.512738 c 0,-0.0092 -0.214431,-0.01274 -0.644532,-0.01274 z"
     id="path6"
     inkscape:connector-curvature="0"
     sodipodi:nodetypes="sccccccsccccccs" />
</svg>

<?xml version="1.0" encoding="UTF-8"?>
<svg xmlns="http://www.w3.org/2000/svg" xmlns:xlink="http://www.w3.org/1999/xlink" width="58pt" height="34pt" viewBox="0 0 58 34" version="1.1">
<g id="surface1">
<path style="fill-rule:nonzero;fill:rgb(21.176471%,36.862745%,68.627451%);fill-opacity:1;stroke-width:1;stroke-linecap:butt;stroke-linejoin:miter;stroke:rgb(1.960784%,15.686275%,63.529412%);stroke-opacity:1;stroke-miterlimit:4;" d="M 30.5 0.498851 C 30.068629 0.498851 29.854997 0.504825 29.854997 0.513787 L 1.47077 2.4375 C 0.825768 2.527114 0.501212 2.667509 0.501212 2.852711 C 0.501212 9.618566 0.501212 16.381434 0.501212 23.147289 C 0.501212 23.332491 0.825768 23.472886 1.47077 23.5625 L 29.854997 25.486213 C 29.854997 25.495175 30.068629 25.501149 30.5 25.501149 C 30.931371 25.501149 31.145003 25.495175 31.145003 25.486213 L 59.52923 23.5625 C 60.174232 23.472886 60.498788 23.332491 60.498788 23.147289 C 60.498788 16.381434 60.498788 9.618566 60.498788 2.852711 C 60.498788 2.667509 60.174232 2.527114 59.52923 2.4375 L 31.145003 0.513787 C 31.145003 0.504825 30.931371 0.498851 30.5 0.498851 Z M 30.5 0.498851 " transform="matrix(0.95082,0,0,1.307692,0,0)"/>
</g>
</svg>
